public/logos/ON.svg

<?xml version="1.0" encoding="UTF-8"?>
<svg xmlns="http://www.w3.org/2000/svg" xmlns:xlink="http://www.w3.org/1999/xlink" width="176pt" height="48.31pt" viewBox="0 0 176 48.31" version="1.1">
<defs>
<clipPath id="clip1">
  <path d="M 123 0 L 176 0 L 176 48.308594 L 123 48.308594 Z M 123 0 "/>
</clipPath>
</defs>
<g id="surface1">
<g clip-path="url(#clip1)" clip-rule="nonzero">
<path style=" stroke:none;fill-rule:nonzero;fill:rgb(25.108337%,57.563782%,83.413696%);fill-opacity:1;" d="M 123.667969 48.308594 L 164.59375 0.00390625 L 176 0.00390625 L 164.59375 48.308594 L 123.667969 48.308594 "/>
</g>
<path style=" stroke:none;fill-rule:nonzero;fill:rgb(48.114014%,81.872559%,83.175659%);fill-opacity:1;" d="M 168.597656 29.003906 C 168.4375 32.5 165.578125 32.816406 163.671875 32.816406 C 159.910156 32.816406 157.421875 27.46875 154.402344 27.46875 C 152.070312 27.46875 152.070312 30.273438 153.34375 30.433594 C 152.210938 31.464844 151.117188 31.09375 150.164062 30.433594 C 149.144531 29.726562 148.941406 27.964844 149.050781 27.335938 C 149.25 26.207031 150.800781 23.996094 153.976562 23.996094 C 160.703125 23.996094 160.757812 30.910156 165.835938 30.671875 C 167.503906 30.597656 168.597656 29.003906 168.597656 29.003906 "/>
<path style=" stroke:none;fill-rule:nonzero;fill:rgb(37.057495%,74.806213%,71.588135%);fill-opacity:1;" d="M 139.238281 31.890625 C 139.394531 28.394531 142.257812 28.074219 144.164062 28.074219 C 147.925781 28.074219 150.414062 33.425781 153.433594 33.425781 C 155.765625 33.425781 155.765625 30.617188 154.492188 30.460938 C 155.625 29.429688 156.71875 29.796875 157.671875 30.460938 C 158.691406 31.167969 158.894531 32.929688 158.785156 33.558594 C 158.585938 34.683594 157.035156 36.894531 153.855469 36.894531 C 147.128906 36.894531 147.078125 29.984375 142 30.21875 C 140.328125 30.296875 139.238281 31.890625 139.238281 31.890625 "/>
<path style=" stroke:none;fill-rule:nonzero;fill:rgb(25.108337%,57.563782%,83.413696%);fill-opacity:1;" d="M 6.449219 32.867188 C 8.304688 32.867188 10.097656 32.167969 11.820312 30.769531 C 13.539062 29.367188 14.753906 27.628906 15.453125 25.554688 C 16.035156 23.816406 16.035156 22.375 15.441406 21.230469 C 14.847656 20.085938 13.8125 19.515625 12.335938 19.515625 C 10.460938 19.515625 8.660156 20.214844 6.933594 21.609375 C 5.207031 23.007812 3.992188 24.75 3.289062 26.839844 C 2.703125 28.585938 2.703125 30.027344 3.300781 31.164062 C 3.894531 32.300781 4.945312 32.867188 6.449219 32.867188 Z M 4.398438 33.734375 C 2.640625 33.734375 1.386719 33.191406 0.636719 32.101562 C -0.113281 31.015625 -0.199219 29.617188 0.375 27.902344 C 1.210938 25.417969 3.011719 23.257812 5.765625 21.421875 C 8.523438 19.585938 11.355469 18.667969 14.261719 18.667969 C 16.0625 18.667969 17.34375 19.207031 18.101562 20.28125 C 18.859375 21.355469 18.949219 22.757812 18.363281 24.492188 C 17.519531 27 15.714844 29.167969 12.953125 30.996094 C 10.191406 32.820312 7.335938 33.734375 4.398438 33.734375 "/>
<path style=" stroke:none;fill-rule:nonzero;fill:rgb(25.108337%,57.563782%,83.413696%);fill-opacity:1;" d="M 27.976562 29.15625 C 26.539062 30.390625 25.035156 31.4375 23.460938 32.296875 C 21.886719 33.15625 20.695312 33.585938 19.890625 33.585938 C 19 33.585938 18.710938 33.125 19.027344 32.195312 C 19.140625 31.847656 19.390625 31.28125 19.773438 30.492188 L 21.421875 27.03125 C 21.449219 26.980469 21.539062 26.777344 21.695312 26.417969 L 22.007812 25.730469 C 22.101562 25.527344 22.179688 25.34375 22.234375 25.183594 C 22.371094 24.773438 22.292969 24.570312 21.996094 24.570312 C 21.316406 24.570312 20.378906 25.167969 19.183594 26.367188 C 19.050781 26.261719 19.003906 26.148438 19.042969 26.027344 C 19.191406 25.589844 19.882812 25.007812 21.117188 24.285156 C 22.355469 23.558594 23.265625 23.195312 23.847656 23.195312 C 24.59375 23.195312 24.828125 23.597656 24.558594 24.398438 C 24.496094 24.589844 24.402344 24.8125 24.28125 25.066406 L 23.886719 25.878906 L 23.46875 26.769531 L 22.03125 29.792969 C 21.785156 30.308594 21.574219 30.828125 21.394531 31.355469 C 21.230469 31.84375 21.378906 32.085938 21.832031 32.085938 C 22.84375 32.085938 24.207031 31.429688 25.921875 30.121094 C 27.636719 28.808594 28.824219 27.511719 29.488281 26.230469 L 30.800781 23.722656 L 33.175781 23.140625 C 32.652344 23.957031 32.214844 24.6875 31.875 25.328125 L 29.578125 29.742188 C 29.441406 30.007812 29.328125 30.234375 29.242188 30.417969 L 28.953125 31 C 28.777344 31.359375 28.664062 31.613281 28.613281 31.757812 C 28.511719 32.0625 28.570312 32.214844 28.785156 32.214844 C 29.546875 32.214844 30.542969 31.554688 31.777344 30.238281 C 31.980469 30.347656 32.0625 30.460938 32.027344 30.574219 C 31.941406 30.820312 31.386719 31.316406 30.351562 32.066406 C 28.960938 33.082031 27.816406 33.585938 26.917969 33.585938 C 26.265625 33.585938 26.050781 33.242188 26.285156 32.550781 C 26.359375 32.332031 26.488281 32.039062 26.675781 31.675781 L 27.113281 30.828125 C 27.347656 30.371094 27.507812 30.058594 27.589844 29.898438 L 27.976562 29.15625 "/>
<path style=" stroke:none;fill-rule:nonzero;fill:rgb(25.108337%,57.563782%,83.413696%);fill-opacity:1;" d="M 38.582031 27.644531 C 41.574219 24.679688 44.03125 23.195312 45.957031 23.195312 C 46.460938 23.195312 46.929688 23.285156 47.371094 23.46875 L 44.925781 25.097656 C 44.683594 24.972656 44.335938 24.90625 43.890625 24.90625 C 42.957031 24.90625 41.773438 25.5 40.339844 26.6875 C 38.90625 27.878906 37.882812 29.113281 37.269531 30.394531 L 36.039062 32.976562 L 33.859375 33.503906 L 34.007812 33.1875 L 34.332031 32.5 L 34.671875 31.8125 L 37.074219 26.777344 L 37.339844 26.230469 C 37.542969 25.8125 37.6875 25.476562 37.773438 25.214844 C 37.917969 24.785156 37.839844 24.570312 37.535156 24.570312 C 36.816406 24.570312 35.898438 25.171875 34.785156 26.375 C 34.605469 26.242188 34.542969 26.105469 34.601562 25.964844 C 34.773438 25.535156 35.464844 24.964844 36.675781 24.257812 C 37.890625 23.550781 38.78125 23.195312 39.347656 23.195312 C 40.109375 23.195312 40.359375 23.589844 40.09375 24.378906 C 40.027344 24.570312 39.917969 24.828125 39.765625 25.148438 L 39.421875 25.890625 L 39 26.777344 L 38.582031 27.644531 "/>
<path style=" stroke:none;fill-rule:nonzero;fill:rgb(25.108337%,57.563782%,83.413696%);fill-opacity:1;" d="M 66.496094 27.550781 C 66.78125 26.328125 67.054688 25.332031 67.308594 24.574219 C 67.441406 24.1875 67.554688 23.871094 67.65625 23.625 L 68.175781 22.398438 C 68.53125 21.5625 68.84375 20.921875 69.117188 20.476562 C 67.078125 21.320312 65.054688 23.046875 63.046875 25.648438 C 62.46875 26.402344 62.136719 26.835938 62.042969 26.949219 L 61.53125 27.550781 Z M 57.015625 25.140625 L 54.367188 26.734375 C 54.253906 25.984375 54.316406 25.253906 54.554688 24.546875 C 55.144531 22.800781 56.582031 21.390625 58.871094 20.320312 C 60.789062 19.417969 63.703125 18.964844 67.609375 18.964844 C 68.273438 18.964844 68.851562 18.976562 69.347656 18.996094 C 70.714844 19.066406 71.414062 19.101562 71.453125 19.101562 L 72.394531 19.101562 C 71.40625 19.960938 70.46875 21.703125 69.585938 24.320312 L 69.414062 24.871094 L 69.058594 26.085938 C 68.566406 27.542969 68.292969 29.035156 68.238281 30.566406 C 68.214844 31.15625 68.261719 31.535156 68.375 31.707031 C 68.488281 31.875 68.757812 31.960938 69.179688 31.960938 C 69.636719 31.960938 70.195312 31.84375 70.855469 31.609375 C 70.878906 31.730469 70.878906 31.828125 70.851562 31.90625 C 70.792969 32.082031 70.566406 32.234375 70.171875 32.359375 L 69.460938 32.605469 L 65.769531 33.734375 C 65.636719 31.953125 65.820312 30.085938 66.328125 28.132812 L 65.113281 28.691406 L 60.597656 28.691406 C 59.214844 30.34375 57.6875 31.519531 56.015625 32.222656 L 58.765625 32.328125 L 56.90625 33.535156 L 51.589844 33.386719 L 53.804688 32.117188 L 55.128906 32.183594 C 55.859375 31.828125 56.542969 31.335938 57.191406 30.695312 C 57.835938 30.058594 58.890625 28.824219 60.359375 26.996094 L 61.058594 26.117188 C 62.480469 24.351562 63.699219 23.0625 64.714844 22.257812 C 65.730469 21.449219 66.964844 20.785156 68.425781 20.265625 C 67.085938 20.0625 65.636719 19.960938 64.074219 19.960938 C 60.101562 19.960938 57.761719 21.011719 57.050781 23.121094 C 56.808594 23.839844 56.796875 24.511719 57.015625 25.140625 "/>
<path style=" stroke:none;fill-rule:nonzero;fill:rgb(25.108337%,57.563782%,83.413696%);fill-opacity:1;" d="M 78.859375 21.832031 L 80.726562 19.640625 C 81.839844 19.316406 82.816406 18.871094 83.652344 18.300781 C 83.710938 18.398438 83.71875 18.5 83.683594 18.605469 C 83.367188 19.550781 81.757812 20.625 78.859375 21.832031 Z M 78.71875 30.238281 C 78.921875 30.347656 79.007812 30.457031 78.96875 30.5625 C 78.886719 30.816406 78.328125 31.316406 77.292969 32.066406 C 75.902344 33.082031 74.757812 33.585938 73.863281 33.585938 C 73.207031 33.585938 72.996094 33.246094 73.226562 32.5625 C 73.324219 32.273438 73.757812 31.386719 74.527344 29.902344 L 76.019531 27.03125 L 76.398438 26.300781 L 76.703125 25.71875 C 76.828125 25.472656 76.921875 25.265625 76.976562 25.097656 C 77.097656 24.746094 77.03125 24.570312 76.78125 24.570312 C 76.085938 24.570312 75.132812 25.171875 73.921875 26.375 C 73.792969 26.257812 73.75 26.136719 73.789062 26.015625 C 73.933594 25.585938 74.632812 25.007812 75.886719 24.285156 C 77.140625 23.558594 78.066406 23.195312 78.667969 23.195312 C 79.339844 23.195312 79.554688 23.558594 79.308594 24.292969 C 79.261719 24.433594 79.128906 24.722656 78.90625 25.160156 L 78.546875 25.867188 C 78.519531 25.921875 78.375 26.207031 78.113281 26.722656 L 76.542969 29.742188 L 76.179688 30.417969 C 75.839844 31.085938 75.628906 31.535156 75.554688 31.757812 C 75.453125 32.0625 75.515625 32.214844 75.738281 32.214844 C 76.488281 32.214844 77.480469 31.554688 78.71875 30.238281 "/>
<path style=" stroke:none;fill-rule:nonzero;fill:rgb(25.108337%,57.563782%,83.413696%);fill-opacity:1;" d="M 85.617188 27.644531 C 88.609375 24.679688 91.066406 23.195312 92.992188 23.195312 C 93.496094 23.195312 93.96875 23.285156 94.40625 23.46875 L 91.964844 25.097656 C 91.71875 24.972656 91.371094 24.90625 90.925781 24.90625 C 89.992188 24.90625 88.808594 25.5 87.375 26.6875 C 85.941406 27.878906 84.917969 29.113281 84.304688 30.394531 L 83.074219 32.976562 L 80.894531 33.503906 L 81.042969 33.1875 L 81.367188 32.5 L 81.707031 31.8125 L 84.109375 26.777344 L 84.375 26.230469 C 84.578125 25.8125 84.722656 25.476562 84.808594 25.214844 C 84.957031 24.785156 84.875 24.570312 84.570312 24.570312 C 83.851562 24.570312 82.933594 25.171875 81.820312 26.375 C 81.640625 26.242188 81.578125 26.105469 81.636719 25.964844 C 81.808594 25.535156 82.5 24.964844 83.714844 24.257812 C 84.925781 23.550781 85.816406 23.195312 86.382812 23.195312 C 87.144531 23.195312 87.394531 23.589844 87.128906 24.378906 C 87.066406 24.570312 86.957031 24.828125 86.800781 25.148438 L 86.457031 25.890625 L 86.035156 26.777344 L 85.617188 27.644531 "/>
<path style=" stroke:none;fill-rule:nonzero;fill:rgb(25.108337%,57.563782%,83.413696%);fill-opacity:1;" d="M 97.289062 30.203125 C 97.515625 30.304688 97.601562 30.429688 97.550781 30.585938 C 97.378906 31.09375 96.6875 31.71875 95.46875 32.46875 C 94.257812 33.214844 93.320312 33.585938 92.664062 33.585938 C 91.921875 33.585938 91.691406 33.164062 91.976562 32.320312 C 92.148438 31.804688 92.367188 31.28125 92.628906 30.742188 L 93.09375 29.804688 L 96.609375 22.445312 C 97.6875 20.203125 99.296875 18.332031 101.4375 16.828125 C 103.582031 15.328125 105.71875 14.578125 107.851562 14.578125 C 108.371094 14.578125 108.800781 14.613281 109.136719 14.683594 L 106.710938 16.214844 C 106.328125 16.101562 105.855469 16.046875 105.289062 16.046875 C 103.945312 16.046875 102.816406 16.417969 101.898438 17.160156 C 100.980469 17.90625 100.097656 19.164062 99.25 20.9375 L 95.019531 29.792969 C 94.691406 30.476562 94.476562 30.964844 94.375 31.261719 C 94.164062 31.894531 94.195312 32.214844 94.472656 32.214844 C 94.800781 32.214844 95.261719 32.003906 95.847656 31.585938 C 96.433594 31.171875 96.914062 30.710938 97.289062 30.203125 "/>
<path style=" stroke:none;fill-rule:nonzero;fill:rgb(25.108337%,57.563782%,83.413696%);fill-opacity:1;" d="M 105.824219 21.832031 L 107.691406 19.640625 C 108.804688 19.316406 109.78125 18.871094 110.621094 18.300781 C 110.675781 18.398438 110.6875 18.5 110.652344 18.605469 C 110.335938 19.550781 108.726562 20.625 105.824219 21.832031 Z M 105.6875 30.238281 C 105.890625 30.347656 105.972656 30.457031 105.9375 30.5625 C 105.851562 30.816406 105.292969 31.316406 104.261719 32.066406 C 102.871094 33.082031 101.726562 33.585938 100.828125 33.585938 C 100.175781 33.585938 99.964844 33.246094 100.195312 32.5625 C 100.289062 32.273438 100.722656 31.386719 101.492188 29.902344 L 102.984375 27.03125 L 103.363281 26.300781 L 103.667969 25.71875 C 103.796875 25.472656 103.890625 25.265625 103.945312 25.097656 C 104.0625 24.746094 104 24.570312 103.75 24.570312 C 103.054688 24.570312 102.097656 25.171875 100.890625 26.375 C 100.761719 26.257812 100.71875 26.136719 100.757812 26.015625 C 100.902344 25.585938 101.601562 25.007812 102.855469 24.285156 C 104.109375 23.558594 105.035156 23.195312 105.636719 23.195312 C 106.308594 23.195312 106.519531 23.558594 106.273438 24.292969 C 106.226562 24.433594 106.09375 24.722656 105.875 25.160156 L 105.515625 25.867188 C 105.488281 25.921875 105.34375 26.207031 105.078125 26.722656 L 103.511719 29.742188 L 103.148438 30.417969 C 102.808594 31.085938 102.597656 31.535156 102.523438 31.757812 C 102.421875 32.0625 102.480469 32.214844 102.703125 32.214844 C 103.453125 32.214844 104.449219 31.554688 105.6875 30.238281 "/>
<path style=" stroke:none;fill-rule:nonzero;fill:rgb(25.108337%,57.563782%,83.413696%);fill-opacity:1;" d="M 110.042969 32.941406 L 107.8125 33.585938 L 107.953125 33.292969 L 108.324219 32.507812 L 108.679688 31.769531 L 111.035156 26.863281 L 111.304688 26.304688 C 111.503906 25.867188 111.652344 25.515625 111.742188 25.246094 C 111.894531 24.796875 111.824219 24.570312 111.539062 24.570312 C 110.863281 24.570312 109.941406 25.167969 108.765625 26.367188 C 108.605469 26.234375 108.539062 26.117188 108.570312 26.015625 C 108.714844 25.59375 109.398438 25.019531 110.628906 24.289062 C 111.859375 23.558594 112.753906 23.195312 113.320312 23.195312 C 114.09375 23.195312 114.347656 23.582031 114.085938 24.359375 C 114.019531 24.554688 113.910156 24.820312 113.753906 25.148438 L 113.355469 26.007812 L 113.003906 26.726562 L 112.640625 27.476562 C 114.117188 26.234375 115.621094 25.210938 117.152344 24.40625 C 118.683594 23.597656 119.894531 23.195312 120.78125 23.195312 C 121.648438 23.195312 121.925781 23.667969 121.605469 24.621094 C 121.507812 24.910156 121.316406 25.339844 121.023438 25.917969 L 118.96875 29.859375 C 118.554688 30.648438 118.269531 31.269531 118.113281 31.726562 C 117.992188 32.09375 118.054688 32.277344 118.308594 32.277344 C 118.929688 32.277344 119.910156 31.632812 121.25 30.34375 C 121.429688 30.449219 121.503906 30.558594 121.464844 30.667969 C 121.308594 31.128906 120.605469 31.730469 119.355469 32.472656 C 118.105469 33.214844 117.164062 33.585938 116.535156 33.585938 C 115.835938 33.585938 115.617188 33.195312 115.882812 32.402344 C 116.078125 31.824219 116.441406 31.027344 116.976562 30.003906 L 118.3125 27.445312 C 118.746094 26.613281 119.042969 25.953125 119.207031 25.46875 C 119.394531 24.910156 119.242188 24.632812 118.75 24.632812 C 117.601562 24.632812 116.234375 25.246094 114.644531 26.464844 C 113.054688 27.691406 111.925781 29.003906 111.257812 30.40625 L 110.042969 32.941406 "/>
<path style=" stroke:none;fill-rule:nonzero;fill:rgb(25.108337%,57.563782%,83.413696%);fill-opacity:1;" d="M 125.460938 28.386719 C 125.699219 28.457031 125.925781 28.492188 126.140625 28.492188 C 127.25 28.492188 128.3125 28.222656 129.328125 27.6875 C 130.34375 27.152344 130.972656 26.523438 131.214844 25.804688 C 131.492188 24.980469 131.097656 24.570312 130.027344 24.570312 C 129.257812 24.570312 128.4375 24.929688 127.574219 25.652344 C 126.707031 26.375 126.003906 27.285156 125.460938 28.386719 Z M 131.136719 29.949219 C 131.320312 30.070312 131.382812 30.210938 131.328125 30.375 C 131.257812 30.59375 130.84375 30.964844 130.089844 31.496094 C 128.085938 32.890625 126.335938 33.585938 124.839844 33.585938 C 123.925781 33.585938 123.269531 33.300781 122.867188 32.730469 C 122.46875 32.160156 122.417969 31.429688 122.71875 30.542969 C 123.257812 28.9375 124.582031 27.308594 126.683594 25.664062 C 128.78125 24.019531 130.589844 23.195312 132.105469 23.195312 C 133.199219 23.195312 133.59375 23.65625 133.28125 24.578125 C 132.929688 25.617188 131.953125 26.628906 130.34375 27.613281 C 128.730469 28.601562 126.941406 29.289062 124.972656 29.675781 C 124.582031 31.367188 125.148438 32.214844 126.675781 32.214844 C 128.179688 32.214844 129.667969 31.460938 131.136719 29.949219 "/>
</g>
</svg>

<svg xmlns="http://www.w3.org/2000/svg" width="176pt" height="64.413" viewBox="0 0 176 48.31"><defs><clipPath id="a"><path d="M123 0h53v48.309h-53Zm0 0"/></clipPath></defs><g clip-path="url(#a)"><path d="M123.668 48.309 164.594.004H176l-11.406 48.305z" style="stroke:none;fill-rule:nonzero;fill:#4093d5;fill-opacity:1"/></g><path d="M168.598 29.004c-.16 3.496-3.02 3.812-4.926 3.812-3.762 0-6.25-5.347-9.27-5.347-2.332 0-2.332 2.804-1.058 2.965-1.133 1.03-2.227.66-3.18 0-1.02-.707-1.223-2.47-1.113-3.098.199-1.129 1.75-3.34 4.926-3.34 6.726 0 6.78 6.914 11.859 6.676 1.668-.074 2.762-1.668 2.762-1.668" style="stroke:none;fill-rule:nonzero;fill:#7bd1d4;fill-opacity:1"/><path d="M139.238 31.89c.157-3.495 3.02-3.816 4.926-3.816 3.762 0 6.25 5.352 9.27 5.352 2.332 0 2.332-2.809 1.058-2.965 1.133-1.031 2.227-.664 3.18 0 1.02.707 1.223 2.469 1.113 3.098-.2 1.125-1.75 3.336-4.93 3.336-6.726 0-6.777-6.91-11.855-6.676-1.672.078-2.762 1.672-2.762 1.672" style="stroke:none;fill-rule:nonzero;fill:#5ebfb7;fill-opacity:1"/><path d="M6.45 32.867c1.855 0 3.648-.699 5.37-2.097 1.72-1.403 2.934-3.141 3.633-5.215.582-1.739.582-3.18-.012-4.325q-.89-1.715-3.105-1.714-2.813.001-5.402 2.093-2.59 2.098-3.645 5.23c-.586 1.747-.586 3.188.012 4.325q.891 1.704 3.148 1.703m-2.052.867q-2.636 0-3.761-1.632-1.124-1.628-.262-4.2c.836-2.484 2.637-4.644 5.39-6.48q4.137-2.754 8.497-2.754 2.702.001 3.84 1.613c.757 1.074.847 2.477.261 4.211q-1.266 3.762-5.41 6.504c-2.762 1.824-5.617 2.738-8.555 2.738M27.977 29.156a26.2 26.2 0 0 1-4.516 3.14q-2.363 1.29-3.57 1.29-1.337.002-.864-1.39.172-.521.746-1.704l1.649-3.46q.04-.077.273-.614l.313-.688q.143-.305.226-.546.207-.614-.238-.614-1.02 0-2.812 1.797-.2-.158-.141-.34.223-.657 2.074-1.742 1.858-1.09 2.73-1.09c.747 0 .981.403.712 1.203a6 6 0 0 1-.278.668l-.394.813-.418.89-1.438 3.024a14 14 0 0 0-.636 1.562c-.165.489-.016.73.437.73q1.518 0 4.09-1.964 2.571-1.969 3.566-3.89l1.313-2.508 2.375-.582c-.524.816-.961 1.547-1.301 2.187l-2.297 4.414a21 21 0 0 0-.336.676l-.289.582q-.264.54-.34.758-.151.457.172.457 1.142 0 2.992-1.977.303.166.25.336c-.086.246-.64.742-1.675 1.492-1.391 1.016-2.536 1.52-3.434 1.52-.652 0-.867-.344-.633-1.035a7 7 0 0 1 .39-.875l.438-.848.477-.93zM38.582 27.645q4.488-4.449 7.375-4.45.754-.001 1.414.274l-2.445 1.629c-.242-.125-.59-.192-1.035-.192q-1.401 0-3.551 1.782-2.15 1.785-3.07 3.707l-1.23 2.582-2.18.527.148-.316.324-.688.34-.687 2.402-5.036.266-.547a9 9 0 0 0 .433-1.015q.218-.645-.238-.645-1.08 0-2.75 1.805-.27-.2-.183-.41.257-.646 2.074-1.707 1.822-1.062 2.672-1.063 1.143 0 .746 1.184a8 8 0 0 1-.328.77l-.344.742-.422.886zM66.496 27.55c.285-1.222.559-2.218.813-2.976q.197-.58.347-.949l.52-1.227q.532-1.253.941-1.921c-2.039.843-4.062 2.57-6.07 5.171-.578.754-.91 1.188-1.004 1.301l-.512.602Zm-9.48-2.41-2.649 1.594q-.17-1.126.188-2.187.884-2.62 4.316-4.227 2.878-1.354 8.738-1.355.995.001 1.739.031c1.367.07 2.066.106 2.105.106h.942q-1.484 1.29-2.81 5.218l-.17.551-.356 1.215a15.7 15.7 0 0 0-.82 4.48q-.035.885.136 1.141.17.253.805.254.685 0 1.675-.352a.6.6 0 0 1-.003.297q-.089.265-.68.453l-.711.246-3.691 1.13c-.133-1.782.05-3.65.558-5.602l-1.215.558h-4.515q-2.074 2.479-4.582 3.532l2.75.105-1.86 1.207-5.316-.148 2.215-1.27 1.324.067a7.8 7.8 0 0 0 2.062-1.489q.967-.955 3.168-3.699l.7-.879c1.421-1.765 2.64-3.055 3.656-3.86q1.521-1.212 3.71-1.991a29 29 0 0 0-4.35-.305c-3.973 0-6.313 1.05-7.024 3.16q-.363 1.077-.035 2.02M78.86 21.832l1.867-2.191q1.671-.486 2.925-1.34a.35.35 0 0 1 .032.304q-.476 1.418-4.825 3.227m-.141 8.406c.203.11.289.219.25.325q-.123.379-1.676 1.503c-1.39 1.016-2.535 1.52-3.43 1.52q-.983 0-.636-1.023.145-.434 1.3-2.66l1.493-2.872.378-.73.305-.582a5 5 0 0 0 .274-.621q.18-.528-.196-.528-1.042 0-2.86 1.805-.191-.176-.132-.36.217-.645 2.098-1.73 1.88-1.09 2.781-1.09 1.01-.002.64 1.098-.069.21-.402.867l-.36.707q-.04.082-.433.856l-1.57 3.02-.363.675c-.34.668-.551 1.117-.625 1.34q-.152.457.183.457 1.124 0 2.98-1.977M85.617 27.645q4.488-4.449 7.375-4.45.757-.001 1.414.274l-2.441 1.629c-.246-.125-.594-.192-1.04-.192q-1.4 0-3.55 1.782-2.15 1.785-3.07 3.707l-1.23 2.582-2.18.527.148-.316.324-.688.34-.687 2.402-5.036.266-.547a9 9 0 0 0 .434-1.015q.22-.645-.239-.645-1.078 0-2.75 1.805-.27-.2-.183-.41.257-.646 2.078-1.707 1.816-1.062 2.668-1.063 1.144 0 .746 1.184-.094.288-.328.77l-.344.742-.422.886zM97.29 30.203q.338.151.26.383c-.171.508-.862 1.133-2.081 1.883-1.211.746-2.149 1.117-2.805 1.117q-1.114 0-.687-1.266.258-.771.652-1.578l.465-.937 3.515-7.36q1.618-3.362 4.829-5.617 3.215-2.25 6.414-2.25.78 0 1.285.106l-2.426 1.53q-.574-.168-1.422-.167-2.015 0-3.39 1.113-1.378 1.118-2.649 3.778l-4.23 8.855q-.493 1.025-.645 1.469c-.21.633-.18.953.098.953q.494 0 1.375-.63a6.3 6.3 0 0 0 1.441-1.382" style="stroke:none;fill-rule:nonzero;fill:#4093d5;fill-opacity:1"/><path d="m105.824 21.832 1.867-2.191q1.67-.486 2.93-1.34.084.146.031.304-.474 1.418-4.828 3.227m-.136 8.406q.304.166.25.325-.13.379-1.676 1.503c-1.39 1.016-2.535 1.52-3.434 1.52q-.978 0-.633-1.023.142-.434 1.297-2.66l1.492-2.872.38-.73.304-.582q.195-.369.277-.621.178-.528-.195-.528c-.695 0-1.652.602-2.86 1.805q-.191-.176-.132-.36.217-.645 2.097-1.73 1.88-1.09 2.782-1.09 1.007-.002.636 1.098-.07.21-.398.867l-.36.707q-.04.082-.437.856l-1.566 3.02-.364.675q-.511 1.004-.625 1.34-.153.457.18.457 1.126 0 2.984-1.977M110.043 32.941l-2.23.645.14-.293.371-.785.356-.738 2.355-4.907.27-.558q.3-.656.437-1.059c.153-.45.082-.676-.203-.676q-1.012 0-2.773 1.797-.241-.2-.196-.351c.145-.422.828-.996 2.059-1.727q1.844-1.095 2.691-1.094 1.16 0 .766 1.164-.099.295-.332.79l-.399.859-.351.719-.363.75q2.214-1.864 4.511-3.07 2.299-1.213 3.63-1.212c.866 0 1.144.473.823 1.426-.097.29-.289.719-.582 1.297l-2.054 3.941q-.622 1.183-.856 1.868c-.12.367-.058.55.196.55q.93 0 2.941-1.933.272.159.215.324-.235.69-2.11 1.805-1.875 1.113-2.82 1.113c-.7 0-.918-.39-.652-1.184q.291-.865 1.094-2.398l1.335-2.559q.65-1.249.895-1.976.281-.837-.457-.836-1.722.002-4.105 1.832-2.386 1.838-3.387 3.941zM125.46 28.387q.36.105.68.105a6.75 6.75 0 0 0 3.188-.805q1.524-.804 1.887-1.882.417-1.236-1.188-1.235-1.157 0-2.453 1.082-1.3 1.083-2.113 2.735m5.677 1.562q.274.18.191.426c-.07.219-.484.59-1.238 1.121q-3.006 2.091-5.25 2.09-1.37 0-1.973-.856-.598-.856-.148-2.187c.539-1.605 1.863-3.234 3.965-4.879q3.147-2.468 5.421-2.469c1.094 0 1.489.461 1.176 1.383q-.525 1.559-2.937 3.035-2.42 1.483-5.371 2.063-.588 2.538 1.703 2.539 2.257.001 4.46-2.266" style="stroke:none;fill-rule:nonzero;fill:#4093d5;fill-opacity:1"/></svg>
